X: 5163
T: Brigid Of Knock
R: hornpipe
M: 4/4
K: Gmajor
|:(3DEF|GFGA Bdgf|agfc ed^cd|BGDG cAFG|ABcB AG(3FED|
G,B,DG ECEG|FADF GBAc|Bgfd cAFA|(3GGG FA G2:|
|:fg|afdf bagf|gage dcBd|ceAc BcdG|FAcA FD(3CB,A,|
G,B,DG ECEG|FADF GBAc|Bgfd cAFA|(3GGG FA G2:|

